**kern	**kern
*staff2	*staff1
*I"Trombone	*I"C Trumpet
=1-	=1-
*clefF4	*clefG2
*k[]	*k[]
*M3/4	*M3/4
4c\ 4e\	4g\ 4cc\ 4ee\
4.c\ 4.e\	4.g\ 4.cc\ 4.ee\
8c\ 8e\	8g\ 8cc\ 8ee\
=2	=2
4c\ 4f\	4g\ 4b\ 4dd\
2c\ 2f\	2g\ 2b\ 2dd\
=3	=3
4c\ 4e\	4g/ 4a/ 4dd/
4.d\ 4.f\	4.g/ 4.a/ 4.b/
8c\ 8e\	8g/ 8a/ 8b/
=4	=4
4B\ 4d\	4g\ 4b\ 4dd\
2B\ 2d\	2g\ 2b\ 2dd\
=5	=5
4B\ 4d\	4g\ 4b\ 4dd\
4.A\ 4.c\	4.g\ 4.cc\ 4.ee\
8G\ 8B\	8g\ 8dd\ 8ff\
=6	=6
4G\ 4B\	4g\ 4dd\ 4ff\
2C\ 2c\	2g\ 2cc\ 2ee\
=7	=7
4C\ 4c\	4e-/ 4cc/ 4ee-/
4.C\ 4.c\	4.f/ 4.b/ 4.dd/
8C\ 8c\	8f#/ 8a/ 8cc/
=8	=8
4C\ 4c\	4f/ 4a-/ 4b/
2C\ 2c\	2f/ 2a-/ 2b/
=9	=9
!!linebreak:original
4C\ 4c\	4e/ 4g/ 4ee/
4.c\ 4.e\	4.g\ 4.cc\ 4.ee\
8c\ 8e\	8g\ 8cc\ 8ee\
=10	=10
4c\ 4f\	4g\ 4b\ 4dd\
2c\ 2f\	2g\ 2b\ 2dd\
=11	=11
4c\ 4f\	4g\ 4b\ 4dd\
4.c\ 4.e\	4.g/ 4.a/ 4.cc/
8B\ 8d\	8g\ 8b\ 8dd\
=12	=12
4A\ 4c\	4g\ 4cc\ 4ee\
2A-\ 2c-\	2g\ 2dd\ 2ff#\
=13	=13
4E-\ 4B-\	4g\ 4ee-\ 4gg\
4.E-\ 4.B-\	4.g\ 4.dd\ 4.ff\
8E-\ 8B-\	8g\ 8cc\ 8een\
=14	=14
4BB-\ 4B-\	4g\ 4b-\ 4dd\
2BB-\ 2B-\	2r
==	==
*-	*-
